X:27
T:Sir Iohn Souch his Galiard (13)
R:Gaillarde
C:Iohn (John) Dowland
H:
N:
B:
O:Angleterre - England
A:
Z:<anamnese@laposte.net> -- http://anamnese.fr.st
M:3/4
L:1/4
Q:1/4=120
K:C
%%staves 1 {(2 3)(4 5)}
V:1
cBA | ^G>A B | cA2 | ^G3 | edc | B2 G/c/-|c/ BA ^G/ | A3  :||:
GA G/>F/ | E/>D/ E/F/ G | c2 B | c3 | ABc | d2c | BA2 | ^G3 :||:
z/e/ c/ ed/ | z/ c/ A/ cB/ | c>B A | ^G2 z | z/ d/ B/G/ c/A/ | B2A | ^G>AB | HA3 :|
V:2
EEE | E2 E | E-E/E/D | z/^G/-GG | =GGG | G D/D/ E/>F/ | GE-E/E/ | z/A/-AA :||:
V:3
A,B,C | B,B,z | ED/B,/4C/4D | z/E/-E E | C D/F/E | D/>C/ B,/D/C | D/D/-D/C/ B, | z/^C/-CC :||:
V:4
K:C bass
%%MIDI transpose -12
ee>^f | ^g/a/ e/=f/=g |
V:5
K:C bass
%%MIDI transpose -12
A^GA | e e-e |
